X:1
T:A Handful of Leaves
T:John Robson Sweney
T:A Handful of Leaves
T:Public Domain
T:Public Domain
T:Public Domain
C:John Robson Sweney
Z:Public Domain
%%score ( 1 2 ) ( 3 4 )
L:1/8
M:3/4
K:Eb
V:1 treble 
V:2 treble 
V:3 bass 
V:4 bass 
V:1
 ([EG][FA]) | [GB]2 [GB]2 [Ac]2 | [GB]2 [EG]2 [GB]2 | [Ae]2 [Ed]2 [Ec]2 | [EB]4 [GB]2 | %5
w: 1.~What! *|sit- ting at|ease when there’s|work to be|done! The|
w: 2.~What! *|sit- ting at|ease, leav- ing|o- thers the|toil Of|
w: 3.~What! *|sit- ting at|ease, when a|bur- den of|care Our|
w: 4.~No *|long- er at|ease we are|fold- ing our|hands, But,|
 [GB]2 [FA]2 [EG]2 | [DF]2 [EG]2 [FA]2 | [Ac]2 [GB]2 [FA]2 | [EG]4 ([EG][FA]) | [GB]2 [GB]2 [Ac]2 | %10
w: best of the|day half its|cir- cuit has|run; Yon *|orb to its|
w: train- ing the|vine- yard and|till- ing the|soil; This *|truth in our|
w: bro- ther has|borne we might|help him to|bear; Oh, *|let us be|
w: will- ing to|do what the|Sav- ior com-|mands, We’ll *|work till the|
 [GB]2 [EG]2 [GB]2 | [Ge]2 [Af]2 [Ge]2 | [GB]4 [GB]2 | [Ac]2 [Ad]2 [Ae]2 | [Ac]2 [GB]2 (EF) | %15
w: ze- nith rides|forth in the|sky; What!|sit- ting at|ease and the *|
w: mind let us|con- stant- ly|keep, From|seed what we|scat- ter the *|
w: ear- nest, and|work while we|may, The|Mas- ter is|call- ing, a- *|
w: har- vest, then|ga- ther the|sheaves, And|bring to Him|more than a *|
 [EG]2 [FA]2 [DF]2 | E4 ||"^Refrain" [Ge]2 | [Fd]2 [DF]2 [EG]2 | [FA]4 [Fd][Ac] | %20
w: vest so nigh!|||||
w: we shall reap.|Oh,|on|the fields, that|al- read- y|
w: and a- way.|||||
w: ful of leaves.|||||
 [Ac]2 [GB]2 [EG]2 | [GB]4 [Ge]2 | [Fd]2 [DF]2 [EG]2 | [FA]2 [Fd]2 [Ac]2 | [Ac]2 [GB]2 [EG]2 | %25
w: |||||
w: are white; The|Lord hath|com- mand- ed|to work in|the light; Be-|
w: |||||
w: |||||
 [GB]4 (EF) | [EG]2 [EG]2 [FA]2 | [GB]4 [GB][GB] | [Ge]2 [Af]2 [Ge]2 | [GB]4 [GB]2 | %30
w: |||||
w: ware lest, *|stead of the|bright, gold- en|sheaves, We bring|to Him|
w: |||||
w: |||||
 [Ac]2 [Ad]2 [Ae]2 | [Ac]2 [GB]2 (EF) | [EG]2 [FA]2 [DF]2 | E4 |] %34
w: ||||
w: on- ly a|hand- ful of *|||
w: ||||
w: ||||
V:2
 x2 | x6 | x6 | x6 | x6 | x6 | x6 | x6 | x6 | x6 | x6 | x6 | x6 | x6 | x4 E2 | x6 | E4 || x2 | x6 | %19
w: ||||||||||||||har-|||||
w: ||||||||||||||fruit||look|||
w: ||||||||||||||rise|||||
w: ||||||||||||||hand-|||||
 x6 | x6 | x6 | x6 | x6 | x6 | x4 E2 | x6 | x6 | x6 | x6 | x6 | x4 E2 | x6 | E4 |] %34
w: |||||||||||||||
w: ||||||in-||||||leaves.|||
w: |||||||||||||||
w: |||||||||||||||
V:3
 [E,B,]2 | [E,E]2 [E,E]2 [E,E]2 | [E,E]2 [E,B,]2 [E,E]2 | [E,C]2 [E,B,]2 [E,A,]2 | %4
 [E,G,]4 [E,B,]2 | [B,,B,]2 [B,,B,]2 [B,,B,]2 | [B,,B,]2 [B,,B,]2 [B,,B,]2 | %7
 [B,,B,]2 [C,B,]2 [D,B,]2 | [E,B,]4 [E,B,]2 | [E,E]2 [E,E]2 [E,E]2 | [E,E]2 [E,B,]2 [E,E]2 | %11
 [E,B,]2 [E,B,]2 [E,B,]2 | [E,E]4 [E,E]2 | [A,E]2 [A,D]2 [A,C]2 | [E,E]2 [E,E]2 ([G,B,][A,C]) | %15
 B,2 [B,,B,]2 [B,,A,]2 | [E,G,]4 || [E,B,]2 | B,2 [B,,B,]2 [B,,B,]2 | [B,,B,]4 [B,,B,][B,,D] | %20
 [E,E]2 [E,E]2 [E,B,]2 | [E,E]4 [E,B,]2 | B,2 [B,,B,]2 [B,,B,]2 | [B,,B,]2 [B,,B,]2 [B,,D]2 | %24
 [E,E]2 [E,E]2 [E,B,]2 | [E,E]4 (G,A,) | [E,B,]2 [E,B,]2 [E,B,]2 | [E,E]4 [E,E][E,E] | %28
 [E,B,]2 [E,B,]2 [E,B,]2 | [E,E]4 [E,E]2 | [A,E]2 [A,D]2 [A,C]2 | [E,E]2 [E,E]2 ([G,B,][A,C]) | %32
 B,2 [B,,B,]2 [B,,A,]2 | [E,G,]4 |] %34
V:4
 x2 | x6 | x6 | x6 | x6 | x6 | x6 | x6 | x6 | x6 | x6 | x6 | x6 | x6 | x6 | B,2 x4 | x4 || x2 | %18
 B,2 x4 | x6 | x6 | x6 | B,2 x4 | x6 | x6 | x4 E,2 | x6 | x6 | x6 | x6 | x6 | x6 | B,2 x4 | x4 |] %34

